!!!SOCIAL_FUNCTION:	songs with hunting dance
!!!PDT:	1956
!!!OTL: No_36_Cow_Creek_Hunting_Dance_Song_(c).krn
!!!LANG: Non-Tone
!!!LING_GROUP: Muskogean
!!!REG: Florida
**kern
*staff1
=1-
*clefF4
*k[b-]
*M2/4
8.c\L
16c\Jk
8.d\L
16c\Jk
=2
[4c\
8.c\L]
32A\LL
32c\JJJ
=3
4..c\
16A\
=4
4G\
[4F\
=5
2F\]
=6
4F\
8.c\L
16c\Jk
=7||
*M3/4
4c\
4G\
8.B-\L
16G\Jk
=8||
*M2/4
4.G\
8F\
=9
2F\
=10
4C/
8.C/L
16C/Jk
=11
8B-\L
8G\J
8.G\L
16F\Jk
=12||
*M3/4
2F\
8.F\L
16D\Jk
=13||
*M2/4
4D\
4D\
=14||
*M3/4
4C/
4C/
8C/L
16C/L
16C/JJ
=15
2C/
4C/
==
*-
